X:1
T:Title
%%score { ( 1 3 ) | ( 2 4 ) }
L:1/8
Q:1/4=93
M:6/8
K:Db
V:1 treble nm="Grand Piano"
V:3 treble 
V:2 bass 
V:4 bass 
V:1
 [FA][FA][FA] [FA][EG][DF] | [DF][EG][GB] [FA]3 | ccc cBc | d3 z3 | [FA][FA][FA] [FA][EG][DF] | %5
w: Howard~E.~Smith * * * * *|||||
 [DF][EG][GB] [FA]3 | ccc cBc | [Fd]6 | eee edc | [Fd][Fd][Fd] [FA]3 | BBB [=GB][Ac][Gd] | z3 c3 | %12
w: |||||||
 [Fd][Fd][Fd] [Fd][Gc][Ad] | edc B3 | AcB ABc | d6 | [DFA][DFA][DFA] [DFA][A,EG][A,DF] | [FA]6 | %18
w: ||||||
 BBB [=GB][Ac][Gd] | c6 | [Fd][Fd][Fd] [Fd][Gc][Ad] | edc B3 | AcB ABc | d6 |] %24
w: ||||||
V:2
 [D,D][D,D][D,D] [D,D][D,A,][D,A,] | [D,A,][D,A,][D,D] [D,D]3 | %2
 [A,EG][A,EG][A,EG] [A,EG][A,DG][A,EG] | z3 .A3 | [D,D][D,D][D,D] [D,D][D,A,][D,A,] | %5
 [D,A,][D,A,][D,D] [D,D]3 | [A,EG][A,EG][A,EG] [A,EG][A,DG][A,EG] | [D,D]6 | %8
 [A,CG][A,CG][A,CG] [A,CG][A,DF][A,EF] | [D,D][D,D][D,D] [D,D]3 | %10
 [G,DG][G,DG][G,DG] [E,E][E,E][E,E] | [A,EA][A,EA][A,EA] .[A,EA]3 | %12
 [D,D][D,D][D,D] [D,A,][E,A,][F,A,] | [G,B,G][G,B,G][G,CG] [G,DG]3 | %14
 [A,CG][A,EG][A,DG] [A,CG][A,DG][A,EG] | z2 B, .A,3 | D,D,D, D,D,D, | D,2 D, .D,3 | %18
 [G,DG][G,DG][G,DG] [E,E][E,E][E,E] | A3 z3 | [D,D][D,D][D,D] [E,A,][E,A,][F,A,] | %21
 [G,B,G][G,B,G][G,CG] [G,DG]3 | [A,CG][A,EG][A,DG] [A,CG][A,DG][A,EG] | z2 B, .A,3 |] %24
V:3
 x6 | x6 | x6 | [DF]6 | x6 | x6 | x6 | x6 | x6 | x6 | x6 | ccc z2 G | x6 | x6 | x6 | [DF]2 G .F3 | %16
 x6 | D2 D .D3 | x6 | z3 .G3 | x6 | x6 | x6 | [DF]2 G .F3 |] %24
V:4
 x6 | x6 | x6 | D,6 | x6 | x6 | x6 | x6 | x6 | x6 | x6 | x6 | x6 | x6 | x6 | D,6 | x6 | x6 | x6 | %19
 [A,E]6 | x6 | x6 | x6 | D,6 |] %24

